icons/shield_us_wi_3.svg

<svg width="26" height="20" overflow="visible" xmlns="http://www.w3.org/2000/svg">
 <path style="fill:#fff;stroke:#000;stroke-width:1.07533;stroke-linejoin:miter;stroke-miterlimit:4;stroke-dasharray:none;stroke-opacity:1" d="M 1.5 0.5 L 2.7207031 2.5175781 C 1.4684806 2.6559482 0.5 3.7096992 0.5 5 L 0.5 14 C 0.5 15.385 1.615 16.5 3 16.5 L 11.183594 16.5 L 13 19.5 L 14.816406 16.5 L 23 16.5 C 24.385 16.5 25.5 15.385 25.5 14 L 25.5 5 C 25.5 3.7096992 24.531519 2.6559482 23.279297 2.5175781 L 24.5 0.5 L 1.5 0.5 z"/>
</svg>

<svg width="26" height="20" overflow="visible" xmlns="http://www.w3.org/2000/svg"><path style="fill:#fff;stroke:#000;stroke-width:1.07533;stroke-linejoin:miter;stroke-miterlimit:4;stroke-dasharray:none;stroke-opacity:1" d="m1.5.5 1.22 2.018A2.493 2.493 0 0 0 .5 5v9c0 1.385 1.115 2.5 2.5 2.5h8.184l1.816 3 1.816-3H23c1.385 0 2.5-1.115 2.5-2.5V5c0-1.29-.968-2.344-2.22-2.482L24.5.5h-23z"/></svg>
